X:519
T:B519-  Whoop! Do Me No Harm, Good Man
S:Whoop Jenny in Scarce Songs file may be original song for tune
Q:1/4=120
L:1/4
M:3/4
K:G
G|B3/2c/d|d3/2c/d|e3/2d/4e/4c|c3/2B/4c/4A|\
B3/2c/d|d^c2|(d3|d2)G|\
B3/2c/d|d3/2e/=f|e3/2d/4e/4c|A3|\
g3|B3/2c/B|A3/2G/A|G2|]

